X: 1511
T: Gundy's Set Tune
B: australian traditional tunes wiki
M:4/4
L:1/8
R: Set Tune
Q: 1/4=100
K:D
V:1 
"D"A2FAB2A2|f2f2f2z2|A2FAB2A2|"A7"g2g2g2z2|B2GBc2B2|e2e2e2z2|B2A2B2A2|"D"f2A2f2A2|
A2FAB2A2|f2f2f2z2|f2ffe2d2|"G"g4"G#"^g4|"A7"a2a2e2e2|c2c2B2B2|A2FAB2c2|"D"d2z2d4||
|:"D"f2f2d2d2|A2A2F4|A2FAG2F2|"A7"E4-"E"E4|"A7"e2e2c2c2|1B2B2A4|A2FAB2G2|"D"F4-"A7"F3A:|2"A7"G2G2E2E2|A2GFA2c2|"D"d4d4||
% abcbook-tune_id 6342d53af6c81cc97839f6f0


% abcbook-boost 0
% abcbook-tablature 
% abcbook-transpose 
% abcbook-lastupdated 1665324368573
% abcbook-soundfonts 
% abcbook-repeats 1
% NFF Book 2010

